X: 1544
T: Angeline The Baker
R: polka
M: 2/4
K: Dmajor
[M:4/4]
dB|:"D"AFAc d3 A|"D"BABc d2 dB|"D"AFAc dB A2|"G" [AD] [G2B2] [AD] [G2B2] dB|
"D" AFAc dcde|"D"fdec d2 de|"G"fafd edBd|1 "D" [A3] [AB] [A2] dB:|2 "D" [A3] [AB] [A2] fg||
|:"D" afge fdBd|"D" fdec d2 fg|"D" a2 (3faf e2 d3|"G" [DA] [D2B2] A Bdfg|
"D" afge fdBd|"D" fdec d2 de|"D" fafd "G" edBd|1 "D"AFAB defg:|2 "D"AFAB d4||

